images/50097931.svg

<?xml version="1.0" encoding="UTF-8"?>
<svg xmlns="http://www.w3.org/2000/svg" xmlns:xlink="http://www.w3.org/1999/xlink" width="300pt" height="300pt" viewBox="0 0 300 300" version="1.1">
<defs>
<g>
<symbol overflow="visible" id="glyph0-0">
<path style="stroke:none;" d="M 0.453125 1.59375 L 0.453125 -6.34375 L 4.953125 -6.34375 L 4.953125 1.59375 Z M 0.953125 1.09375 L 4.453125 1.09375 L 4.453125 -5.84375 L 0.953125 -5.84375 Z M 0.953125 1.09375 "/>
</symbol>
<symbol overflow="visible" id="glyph0-1">
<path style="stroke:none;" d="M 3.546875 -5.953125 C 2.898438 -5.953125 2.382812 -5.710938 2 -5.234375 C 1.625 -4.753906 1.4375 -4.101562 1.4375 -3.28125 C 1.4375 -2.445312 1.625 -1.789062 2 -1.3125 C 2.382812 -0.832031 2.898438 -0.59375 3.546875 -0.59375 C 4.191406 -0.59375 4.703125 -0.832031 5.078125 -1.3125 C 5.453125 -1.789062 5.640625 -2.445312 5.640625 -3.28125 C 5.640625 -4.101562 5.453125 -4.753906 5.078125 -5.234375 C 4.703125 -5.710938 4.191406 -5.953125 3.546875 -5.953125 Z M 3.546875 -6.6875 C 4.460938 -6.6875 5.195312 -6.375 5.75 -5.75 C 6.300781 -5.132812 6.578125 -4.3125 6.578125 -3.28125 C 6.578125 -2.238281 6.300781 -1.410156 5.75 -0.796875 C 5.195312 -0.179688 4.460938 0.125 3.546875 0.125 C 2.617188 0.125 1.878906 -0.179688 1.328125 -0.796875 C 0.773438 -1.410156 0.5 -2.238281 0.5 -3.28125 C 0.5 -4.3125 0.773438 -5.132812 1.328125 -5.75 C 1.878906 -6.375 2.617188 -6.6875 3.546875 -6.6875 Z M 3.546875 -6.6875 "/>
</symbol>
<symbol overflow="visible" id="glyph0-2">
<path style="stroke:none;" d="M 0.890625 -6.5625 L 2.078125 -6.5625 L 4.984375 -1.078125 L 4.984375 -6.5625 L 5.84375 -6.5625 L 5.84375 0 L 4.65625 0 L 1.75 -5.484375 L 1.75 0 L 0.890625 0 Z M 0.890625 -6.5625 "/>
</symbol>
<symbol overflow="visible" id="glyph0-3">
<path style="stroke:none;" d="M 0.890625 -6.5625 L 1.765625 -6.5625 L 1.765625 -3.875 L 5 -3.875 L 5 -6.5625 L 5.890625 -6.5625 L 5.890625 0 L 5 0 L 5 -3.125 L 1.765625 -3.125 L 1.765625 0 L 0.890625 0 Z M 0.890625 -6.5625 "/>
</symbol>
</g>
</defs>
<g id="surface20569">
<rect x="0" y="0" width="300" height="300" style="fill:rgb(100%,100%,100%);fill-opacity:1;stroke:none;"/>
<path style="fill:none;stroke-width:1.2;stroke-linecap:butt;stroke-linejoin:miter;stroke:rgb(100%,0%,0%);stroke-opacity:1;stroke-miterlimit:10;" d="M 264.75 158.070312 L 262.246094 168.285156 "/>
<path style="fill:none;stroke-width:1.2;stroke-linecap:butt;stroke-linejoin:miter;stroke:rgb(0%,0%,0%);stroke-opacity:1;stroke-miterlimit:10;" d="M 262.246094 168.285156 L 259.742188 178.496094 "/>
<path style="fill:none;stroke-width:1.2;stroke-linecap:butt;stroke-linejoin:miter;stroke:rgb(100%,0%,0%);stroke-opacity:1;stroke-miterlimit:10;" d="M 264.75 158.070312 L 257.15625 150.796875 "/>
<path style="fill:none;stroke-width:1.2;stroke-linecap:butt;stroke-linejoin:miter;stroke:rgb(0%,0%,0%);stroke-opacity:1;stroke-miterlimit:10;" d="M 257.15625 150.796875 L 249.5625 143.523438 "/>
<path style=" stroke:none;fill-rule:nonzero;fill:rgb(100%,100%,100%);fill-opacity:1;" d="M 260.75 152.570312 L 268.75 152.570312 L 268.75 163.570312 L 260.75 163.570312 Z M 260.75 152.570312 "/>
<g style="fill:rgb(100%,0%,0%);fill-opacity:1;">
  <use xlink:href="#glyph0-1" x="260.75" y="161.233398"/>
</g>
<path style="fill:none;stroke-width:1.2;stroke-linecap:butt;stroke-linejoin:miter;stroke:rgb(0%,0%,0%);stroke-opacity:1;stroke-miterlimit:10;" d="M 249.5625 143.523438 L 229.371094 149.402344 "/>
<path style="fill:none;stroke-width:1.2;stroke-linecap:butt;stroke-linejoin:miter;stroke:rgb(0%,0%,0%);stroke-opacity:1;stroke-miterlimit:10;" d="M 246.160156 139.359375 L 230.007812 144.0625 "/>
<path style="fill:none;stroke-width:1.2;stroke-linecap:butt;stroke-linejoin:miter;stroke:rgb(0%,0%,0%);stroke-opacity:1;stroke-miterlimit:10;" d="M 254.570312 123.097656 L 249.5625 143.523438 "/>
<path style="fill:none;stroke-width:1.2;stroke-linecap:butt;stroke-linejoin:miter;stroke:rgb(0%,0%,0%);stroke-opacity:1;stroke-miterlimit:10;" d="M 229.371094 149.402344 L 214.183594 134.851562 "/>
<path style="fill:none;stroke-width:1.2;stroke-linecap:butt;stroke-linejoin:miter;stroke:rgb(0%,0%,0%);stroke-opacity:1;stroke-miterlimit:10;" d="M 214.183594 134.851562 L 204.089844 137.792969 "/>
<path style="fill:none;stroke-width:1.2;stroke-linecap:butt;stroke-linejoin:miter;stroke:rgb(0%,0%,100%);stroke-opacity:1;stroke-miterlimit:10;" d="M 204.089844 137.792969 L 193.992188 140.730469 "/>
<path style="fill:none;stroke-width:1.2;stroke-linecap:butt;stroke-linejoin:miter;stroke:rgb(0%,0%,0%);stroke-opacity:1;stroke-miterlimit:10;" d="M 214.183594 134.851562 L 219.191406 114.425781 "/>
<path style="fill:none;stroke-width:1.2;stroke-linecap:butt;stroke-linejoin:miter;stroke:rgb(0%,0%,0%);stroke-opacity:1;stroke-miterlimit:10;" d="M 219.492188 133.988281 L 223.496094 117.648438 "/>
<path style="fill:none;stroke-width:1.2;stroke-linecap:butt;stroke-linejoin:miter;stroke:rgb(0%,0%,100%);stroke-opacity:1;stroke-miterlimit:10;" d="M 193.992188 140.730469 L 186.398438 133.457031 "/>
<path style="fill:none;stroke-width:1.2;stroke-linecap:butt;stroke-linejoin:miter;stroke:rgb(0%,0%,0%);stroke-opacity:1;stroke-miterlimit:10;" d="M 186.398438 133.457031 L 178.804688 126.183594 "/>
<path style=" stroke:none;fill-rule:nonzero;fill:rgb(100%,100%,100%);fill-opacity:1;" d="M 186.992188 135.230469 L 200.992188 135.230469 L 200.992188 146.230469 L 186.992188 146.230469 Z M 186.992188 135.230469 "/>
<g style="fill:rgb(0%,0%,100%);fill-opacity:1;">
  <use xlink:href="#glyph0-2" x="186.992188" y="143.893555"/>
  <use xlink:href="#glyph0-3" x="193.969727" y="143.893555"/>
</g>
<path style="fill:none;stroke-width:1.2;stroke-linecap:butt;stroke-linejoin:miter;stroke:rgb(0%,0%,0%);stroke-opacity:1;stroke-miterlimit:10;" d="M 178.804688 126.183594 L 158.613281 132.058594 "/>
<path style="fill:none;stroke-width:1.2;stroke-linecap:butt;stroke-linejoin:miter;stroke:rgb(0%,0%,0%);stroke-opacity:1;stroke-miterlimit:10;" d="M 158.613281 132.058594 L 155.058594 141.953125 "/>
<path style="fill:none;stroke-width:1.2;stroke-linecap:butt;stroke-linejoin:miter;stroke:rgb(0%,0%,100%);stroke-opacity:1;stroke-miterlimit:10;" d="M 155.058594 141.953125 L 151.5 151.851562 "/>
<path style="fill:none;stroke-width:1.2;stroke-linecap:butt;stroke-linejoin:miter;stroke:rgb(0%,0%,100%);stroke-opacity:1;stroke-miterlimit:10;" d="M 141.992188 119.179688 L 150.300781 125.617188 "/>
<path style="fill:none;stroke-width:1.2;stroke-linecap:butt;stroke-linejoin:miter;stroke:rgb(0%,0%,0%);stroke-opacity:1;stroke-miterlimit:10;" d="M 150.300781 125.617188 L 158.613281 132.058594 "/>
<path style="fill:none;stroke-width:1.2;stroke-linecap:butt;stroke-linejoin:miter;stroke:rgb(0%,0%,100%);stroke-opacity:1;stroke-miterlimit:10;" d="M 140.621094 124.378906 L 147.269531 129.53125 "/>
<path style="fill:none;stroke-width:1.2;stroke-linecap:butt;stroke-linejoin:miter;stroke:rgb(0%,0%,0%);stroke-opacity:1;stroke-miterlimit:10;" d="M 147.269531 129.53125 L 153.921875 134.683594 "/>
<path style="fill:none;stroke-width:1.2;stroke-linecap:butt;stroke-linejoin:miter;stroke:rgb(0%,0%,100%);stroke-opacity:1;stroke-miterlimit:10;" d="M 151.5 151.851562 L 140.992188 151.523438 "/>
<path style="fill:none;stroke-width:1.2;stroke-linecap:butt;stroke-linejoin:miter;stroke:rgb(0%,0%,0%);stroke-opacity:1;stroke-miterlimit:10;" d="M 140.992188 151.523438 L 130.480469 151.199219 "/>
<path style=" stroke:none;fill-rule:nonzero;fill:rgb(100%,100%,100%);fill-opacity:1;" d="M 144.5 146.351562 L 158.5 146.351562 L 158.5 157.351562 L 144.5 157.351562 Z M 144.5 146.351562 "/>
<g style="fill:rgb(0%,0%,100%);fill-opacity:1;">
  <use xlink:href="#glyph0-2" x="144.5" y="155.014648"/>
  <use xlink:href="#glyph0-3" x="151.477539" y="155.014648"/>
</g>
<path style="fill:none;stroke-width:1.2;stroke-linecap:butt;stroke-linejoin:miter;stroke:rgb(0%,0%,0%);stroke-opacity:1;stroke-miterlimit:10;" d="M 130.480469 151.199219 L 124.601562 131.007812 "/>
<path style="fill:none;stroke-width:1.2;stroke-linecap:butt;stroke-linejoin:miter;stroke:rgb(0%,0%,0%);stroke-opacity:1;stroke-miterlimit:10;" d="M 134.644531 147.796875 L 129.941406 131.644531 "/>
<path style="fill:none;stroke-width:1.2;stroke-linecap:butt;stroke-linejoin:miter;stroke:rgb(0%,0%,0%);stroke-opacity:1;stroke-miterlimit:10;" d="M 130.480469 151.199219 L 117.597656 167.824219 "/>
<path style="fill:none;stroke-width:1.2;stroke-linecap:butt;stroke-linejoin:miter;stroke:rgb(0%,0%,0%);stroke-opacity:1;stroke-miterlimit:10;" d="M 124.601562 131.007812 L 133.296875 125.09375 "/>
<path style="fill:none;stroke-width:1.2;stroke-linecap:butt;stroke-linejoin:miter;stroke:rgb(0%,0%,100%);stroke-opacity:1;stroke-miterlimit:10;" d="M 133.296875 125.09375 L 141.992188 119.179688 "/>
<path style="fill:none;stroke-width:1.2;stroke-linecap:butt;stroke-linejoin:miter;stroke:rgb(0%,0%,0%);stroke-opacity:1;stroke-miterlimit:10;" d="M 124.601562 131.007812 L 104.8125 123.894531 "/>
<path style=" stroke:none;fill-rule:nonzero;fill:rgb(100%,100%,100%);fill-opacity:1;" d="M 138.992188 113.679688 L 145.992188 113.679688 L 145.992188 124.679688 L 138.992188 124.679688 Z M 138.992188 113.679688 "/>
<g style="fill:rgb(0%,0%,100%);fill-opacity:1;">
  <use xlink:href="#glyph0-2" x="138.992188" y="122.342773"/>
</g>
<path style="fill:none;stroke-width:1.2;stroke-linecap:butt;stroke-linejoin:miter;stroke:rgb(0%,0%,0%);stroke-opacity:1;stroke-miterlimit:10;" d="M 104.8125 123.894531 L 101.078125 103.199219 "/>
<path style="fill:none;stroke-width:1.2;stroke-linecap:butt;stroke-linejoin:miter;stroke:rgb(0%,0%,0%);stroke-opacity:1;stroke-miterlimit:10;" d="M 104.8125 123.894531 L 88.757812 137.476562 "/>
<path style="fill:none;stroke-width:1.2;stroke-linecap:butt;stroke-linejoin:miter;stroke:rgb(0%,0%,0%);stroke-opacity:1;stroke-miterlimit:10;" d="M 100.011719 121.476562 L 87.164062 132.339844 "/>
<path style="fill:none;stroke-width:1.2;stroke-linecap:butt;stroke-linejoin:miter;stroke:rgb(0%,0%,0%);stroke-opacity:1;stroke-miterlimit:10;" d="M 101.078125 103.199219 L 81.285156 96.085938 "/>
<path style="fill:none;stroke-width:1.2;stroke-linecap:butt;stroke-linejoin:miter;stroke:rgb(0%,0%,0%);stroke-opacity:1;stroke-miterlimit:10;" d="M 97.425781 107.144531 L 81.59375 101.453125 "/>
<path style="fill:none;stroke-width:1.2;stroke-linecap:butt;stroke-linejoin:miter;stroke:rgb(0%,0%,0%);stroke-opacity:1;stroke-miterlimit:10;" d="M 81.285156 96.085938 L 65.230469 109.667969 "/>
<path style="fill:none;stroke-width:1.2;stroke-linecap:butt;stroke-linejoin:miter;stroke:rgb(0%,0%,0%);stroke-opacity:1;stroke-miterlimit:10;" d="M 65.230469 109.667969 L 67.097656 120.015625 "/>
<path style="fill:none;stroke-width:1.2;stroke-linecap:butt;stroke-linejoin:miter;stroke:rgb(0%,0%,100%);stroke-opacity:1;stroke-miterlimit:10;" d="M 67.097656 120.015625 L 68.964844 130.363281 "/>
<path style="fill:none;stroke-width:1.2;stroke-linecap:butt;stroke-linejoin:miter;stroke:rgb(0%,0%,100%);stroke-opacity:1;stroke-miterlimit:10;" d="M 44.394531 106.824219 L 54.8125 108.246094 "/>
<path style="fill:none;stroke-width:1.2;stroke-linecap:butt;stroke-linejoin:miter;stroke:rgb(0%,0%,0%);stroke-opacity:1;stroke-miterlimit:10;" d="M 54.8125 108.246094 L 65.230469 109.667969 "/>
<path style="fill:none;stroke-width:1.2;stroke-linecap:butt;stroke-linejoin:miter;stroke:rgb(0%,0%,100%);stroke-opacity:1;stroke-miterlimit:10;" d="M 45.808594 112.011719 L 54.144531 113.148438 "/>
<path style="fill:none;stroke-width:1.2;stroke-linecap:butt;stroke-linejoin:miter;stroke:rgb(0%,0%,0%);stroke-opacity:1;stroke-miterlimit:10;" d="M 54.144531 113.148438 L 62.476562 114.285156 "/>
<path style="fill:none;stroke-width:1.2;stroke-linecap:butt;stroke-linejoin:miter;stroke:rgb(0%,0%,100%);stroke-opacity:1;stroke-miterlimit:10;" d="M 68.964844 130.363281 L 50.4375 140.308594 "/>
<path style="fill:none;stroke-width:1.2;stroke-linecap:butt;stroke-linejoin:miter;stroke:rgb(0%,0%,100%);stroke-opacity:1;stroke-miterlimit:10;" d="M 68.964844 130.363281 L 78.859375 133.921875 "/>
<path style="fill:none;stroke-width:1.2;stroke-linecap:butt;stroke-linejoin:miter;stroke:rgb(0%,0%,0%);stroke-opacity:1;stroke-miterlimit:10;" d="M 78.859375 133.921875 L 88.757812 137.476562 "/>
<path style=" stroke:none;fill-rule:nonzero;fill:rgb(100%,100%,100%);fill-opacity:1;" d="M 65.964844 124.863281 L 72.964844 124.863281 L 72.964844 135.863281 L 65.964844 135.863281 Z M 65.964844 124.863281 "/>
<g style="fill:rgb(0%,0%,100%);fill-opacity:1;">
  <use xlink:href="#glyph0-2" x="65.964844" y="133.526367"/>
</g>
<path style="fill:none;stroke-width:1.2;stroke-linecap:butt;stroke-linejoin:miter;stroke:rgb(0%,0%,100%);stroke-opacity:1;stroke-miterlimit:10;" d="M 50.4375 140.308594 L 42.84375 133.035156 "/>
<path style="fill:none;stroke-width:1.2;stroke-linecap:butt;stroke-linejoin:miter;stroke:rgb(0%,0%,0%);stroke-opacity:1;stroke-miterlimit:10;" d="M 42.84375 133.035156 L 35.25 125.761719 "/>
<path style="fill:none;stroke-width:1.2;stroke-linecap:butt;stroke-linejoin:miter;stroke:rgb(0%,0%,100%);stroke-opacity:1;stroke-miterlimit:10;" d="M 52.339844 135.28125 L 46.265625 129.464844 "/>
<path style="fill:none;stroke-width:1.2;stroke-linecap:butt;stroke-linejoin:miter;stroke:rgb(0%,0%,0%);stroke-opacity:1;stroke-miterlimit:10;" d="M 46.265625 129.464844 L 40.191406 123.644531 "/>
<path style=" stroke:none;fill-rule:nonzero;fill:rgb(100%,100%,100%);fill-opacity:1;" d="M 47.4375 134.808594 L 54.4375 134.808594 L 54.4375 145.808594 L 47.4375 145.808594 Z M 47.4375 134.808594 "/>
<g style="fill:rgb(0%,0%,100%);fill-opacity:1;">
  <use xlink:href="#glyph0-2" x="47.4375" y="143.47168"/>
</g>
<path style="fill:none;stroke-width:1.2;stroke-linecap:butt;stroke-linejoin:miter;stroke:rgb(0%,0%,0%);stroke-opacity:1;stroke-miterlimit:10;" d="M 35.25 125.761719 L 39.820312 116.292969 "/>
<path style="fill:none;stroke-width:1.2;stroke-linecap:butt;stroke-linejoin:miter;stroke:rgb(0%,0%,100%);stroke-opacity:1;stroke-miterlimit:10;" d="M 39.820312 116.292969 L 44.394531 106.824219 "/>
<path style=" stroke:none;fill-rule:nonzero;fill:rgb(100%,100%,100%);fill-opacity:1;" d="M 41.394531 101.324219 L 48.394531 101.324219 L 48.394531 112.324219 L 41.394531 112.324219 Z M 41.394531 101.324219 "/>
<g style="fill:rgb(0%,0%,100%);fill-opacity:1;">
  <use xlink:href="#glyph0-2" x="41.394531" y="109.987305"/>
</g>
<path style="fill:none;stroke-width:1.2;stroke-linecap:butt;stroke-linejoin:miter;stroke:rgb(0%,0%,0%);stroke-opacity:1;stroke-miterlimit:10;" d="M 117.597656 167.824219 L 107.179688 166.402344 "/>
<path style="fill:none;stroke-width:1.2;stroke-linecap:butt;stroke-linejoin:miter;stroke:rgb(0%,0%,100%);stroke-opacity:1;stroke-miterlimit:10;" d="M 107.179688 166.402344 L 96.761719 164.980469 "/>
<path style="fill:none;stroke-width:1.2;stroke-linecap:butt;stroke-linejoin:miter;stroke:rgb(0%,0%,0%);stroke-opacity:1;stroke-miterlimit:10;" d="M 114.847656 172.441406 L 106.511719 171.304688 "/>
<path style="fill:none;stroke-width:1.2;stroke-linecap:butt;stroke-linejoin:miter;stroke:rgb(0%,0%,100%);stroke-opacity:1;stroke-miterlimit:10;" d="M 106.511719 171.304688 L 98.175781 170.167969 "/>
<path style="fill:none;stroke-width:1.2;stroke-linecap:butt;stroke-linejoin:miter;stroke:rgb(0%,0%,0%);stroke-opacity:1;stroke-miterlimit:10;" d="M 125.554688 187.292969 L 117.597656 167.824219 "/>
<path style="fill:none;stroke-width:1.2;stroke-linecap:butt;stroke-linejoin:miter;stroke:rgb(0%,0%,100%);stroke-opacity:1;stroke-miterlimit:10;" d="M 96.761719 164.980469 L 90.320312 173.292969 "/>
<path style="fill:none;stroke-width:1.2;stroke-linecap:butt;stroke-linejoin:miter;stroke:rgb(0%,0%,0%);stroke-opacity:1;stroke-miterlimit:10;" d="M 90.320312 173.292969 L 83.878906 181.605469 "/>
<path style=" stroke:none;fill-rule:nonzero;fill:rgb(100%,100%,100%);fill-opacity:1;" d="M 93.761719 159.480469 L 100.761719 159.480469 L 100.761719 170.480469 L 93.761719 170.480469 Z M 93.761719 159.480469 "/>
<g style="fill:rgb(0%,0%,100%);fill-opacity:1;">
  <use xlink:href="#glyph0-2" x="93.761719" y="168.143555"/>
</g>
<path style="fill:none;stroke-width:1.2;stroke-linecap:butt;stroke-linejoin:miter;stroke:rgb(0%,0%,0%);stroke-opacity:1;stroke-miterlimit:10;" d="M 83.878906 181.605469 L 91.835938 201.070312 "/>
<path style="fill:none;stroke-width:1.2;stroke-linecap:butt;stroke-linejoin:miter;stroke:rgb(0%,0%,0%);stroke-opacity:1;stroke-miterlimit:10;" d="M 89.257812 181.679688 L 95.621094 197.253906 "/>
<path style="fill:none;stroke-width:1.2;stroke-linecap:butt;stroke-linejoin:miter;stroke:rgb(0%,0%,0%);stroke-opacity:1;stroke-miterlimit:10;" d="M 83.878906 181.605469 L 63.042969 178.761719 "/>
<path style="fill:none;stroke-width:1.2;stroke-linecap:butt;stroke-linejoin:miter;stroke:rgb(0%,0%,0%);stroke-opacity:1;stroke-miterlimit:10;" d="M 91.835938 201.070312 L 112.675781 203.914062 "/>
<path style="fill:none;stroke-width:1.2;stroke-linecap:butt;stroke-linejoin:miter;stroke:rgb(0%,0%,0%);stroke-opacity:1;stroke-miterlimit:10;" d="M 112.675781 203.914062 L 125.554688 187.292969 "/>
<path style="fill:none;stroke-width:1.2;stroke-linecap:butt;stroke-linejoin:miter;stroke:rgb(0%,0%,0%);stroke-opacity:1;stroke-miterlimit:10;" d="M 110.050781 199.222656 L 120.355469 185.921875 "/>
<path style="fill:none;stroke-width:1.2;stroke-linecap:butt;stroke-linejoin:miter;stroke:rgb(0%,0%,0%);stroke-opacity:1;stroke-miterlimit:10;" d="M 219.191406 114.425781 L 239.382812 108.550781 "/>
<path style="fill:none;stroke-width:1.2;stroke-linecap:butt;stroke-linejoin:miter;stroke:rgb(0%,0%,0%);stroke-opacity:1;stroke-miterlimit:10;" d="M 239.382812 108.550781 L 254.570312 123.097656 "/>
<path style="fill:none;stroke-width:1.2;stroke-linecap:butt;stroke-linejoin:miter;stroke:rgb(0%,0%,0%);stroke-opacity:1;stroke-miterlimit:10;" d="M 237.480469 113.578125 L 249.628906 125.214844 "/>
</g>
</svg>

<svg xmlns="http://www.w3.org/2000/svg" xmlns:xlink="http://www.w3.org/1999/xlink" width="300pt" height="300pt" viewBox="0 0 300 300"><defs><symbol overflow="visible"><path d="M.453 1.594v-7.938h4.5v7.938zm.5-.5h3.5v-6.938h-3.5zm0 0"/></symbol><symbol overflow="visible" id="a"><path d="M3.547-5.953c-.65 0-1.164.242-1.547.72-.375.48-.563 1.13-.563 1.952 0 .835.188 1.49.563 1.967.383.48.898.72 1.547.72.644 0 1.156-.24 1.53-.72.376-.476.564-1.132.564-1.968 0-.822-.187-1.474-.562-1.954-.375-.477-.887-.72-1.53-.72zm0-.734c.914 0 1.648.312 2.203.937.55.617.828 1.438.828 2.47 0 1.042-.277 1.87-.828 2.483-.555.617-1.29.922-2.203.922-.93 0-1.668-.305-2.22-.922C.774-1.41.5-2.237.5-3.28c0-1.033.273-1.853.828-2.47.55-.625 1.29-.938 2.22-.938zm0 0"/></symbol><symbol overflow="visible" id="b"><path d="M.89-6.563H2.08l2.906 5.485v-5.484h.86V0H4.656L1.75-5.484V0H.89zm0 0"/></symbol><symbol overflow="visible" id="c"><path d="M.89-6.563h.876v2.688H5v-2.688h.89V0H5v-3.125H1.766V0H.89zm0 0"/></symbol></defs><g><path fill="#fff" d="M0 0h300v300H0z"/><path d="M264.75 158.07l-2.504 10.215" stroke-width="1.2" stroke="#f00" stroke-miterlimit="10" fill="none"/><path d="M262.246 168.285l-2.504 10.21" stroke-width="1.2" stroke="#000" stroke-miterlimit="10" fill="none"/><path d="M264.75 158.07l-7.594-7.273" stroke-width="1.2" stroke="#f00" stroke-miterlimit="10" fill="none"/><path d="M257.156 150.797l-7.594-7.274" stroke-width="1.2" stroke="#000" stroke-miterlimit="10" fill="none"/><path d="M260.75 152.57h8v11h-8zm0 0" fill="#fff"/><use xlink:href="#a" x="260.75" y="161.233" fill="#f00"/><path d="M249.563 143.523l-20.192 5.88M246.16 139.36l-16.152 4.702M254.57 123.098l-5.007 20.425M229.37 149.402l-15.186-14.55M214.184 134.852l-10.094 2.94" stroke-width="1.2" stroke="#000" stroke-miterlimit="10" fill="none"/><path d="M204.09 137.793l-10.098 2.937" stroke-width="1.2" stroke="#00f" stroke-miterlimit="10" fill="none"/><path d="M214.184 134.852l5.007-20.426M219.492 133.988l4.004-16.34" stroke-width="1.2" stroke="#000" stroke-miterlimit="10" fill="none"/><path d="M193.992 140.73l-7.594-7.273" stroke-width="1.2" stroke="#00f" stroke-miterlimit="10" fill="none"/><path d="M186.398 133.457l-7.593-7.273" stroke-width="1.2" stroke="#000" stroke-miterlimit="10" fill="none"/><path d="M186.992 135.23h14v11h-14zm0 0" fill="#fff"/><g fill="#00f"><use xlink:href="#b" x="186.992" y="143.894"/><use xlink:href="#c" x="193.97" y="143.894"/></g><path d="M178.805 126.184l-20.192 5.875M158.613 132.06l-3.554 9.893" stroke-width="1.2" stroke="#000" stroke-miterlimit="10" fill="none"/><path d="M155.06 141.953l-3.56 9.9M141.992 119.18l8.31 6.437" stroke-width="1.2" stroke="#00f" stroke-miterlimit="10" fill="none"/><path d="M150.3 125.617l8.313 6.442" stroke-width="1.2" stroke="#000" stroke-miterlimit="10" fill="none"/><path d="M140.62 124.38l6.65 5.15" stroke-width="1.2" stroke="#00f" stroke-miterlimit="10" fill="none"/><path d="M147.27 129.53l6.652 5.154" stroke-width="1.2" stroke="#000" stroke-miterlimit="10" fill="none"/><path d="M151.5 151.852l-10.508-.33" stroke-width="1.2" stroke="#00f" stroke-miterlimit="10" fill="none"/><path d="M140.992 151.523l-10.512-.324" stroke-width="1.2" stroke="#000" stroke-miterlimit="10" fill="none"/><path d="M144.5 146.352h14v11h-14zm0 0" fill="#fff"/><g fill="#00f"><use xlink:href="#b" x="144.5" y="155.015"/><use xlink:href="#c" x="151.478" y="155.015"/></g><path d="M130.48 151.2l-5.878-20.192M134.645 147.797l-4.704-16.152M130.48 151.2l-12.882 16.624M124.602 131.008l8.695-5.914" stroke-width="1.2" stroke="#000" stroke-miterlimit="10" fill="none"/><path d="M133.297 125.094l8.695-5.914" stroke-width="1.2" stroke="#00f" stroke-miterlimit="10" fill="none"/><path d="M124.602 131.008l-19.79-7.113" stroke-width="1.2" stroke="#000" stroke-miterlimit="10" fill="none"/><path d="M138.992 113.68h7v11h-7zm0 0" fill="#fff"/><use xlink:href="#b" x="138.992" y="122.343" fill="#00f"/><path d="M104.813 123.895l-3.735-20.696M104.813 123.895l-16.055 13.582M100.012 121.477L87.164 132.34M101.078 103.2l-19.793-7.114M97.426 107.145l-15.832-5.692M81.285 96.086L65.23 109.668M65.23 109.668l1.868 10.348" stroke-width="1.2" stroke="#000" stroke-miterlimit="10" fill="none"/><path d="M67.098 120.016l1.867 10.347M44.395 106.824l10.417 1.422" stroke-width="1.2" stroke="#00f" stroke-miterlimit="10" fill="none"/><path d="M54.813 108.246l10.417 1.422" stroke-width="1.2" stroke="#000" stroke-miterlimit="10" fill="none"/><path d="M45.81 112.012l8.335 1.136" stroke-width="1.2" stroke="#00f" stroke-miterlimit="10" fill="none"/><path d="M54.145 113.148l8.332 1.137" stroke-width="1.2" stroke="#000" stroke-miterlimit="10" fill="none"/><path d="M68.965 130.363l-18.528 9.946M68.965 130.363l9.894 3.56" stroke-width="1.2" stroke="#00f" stroke-miterlimit="10" fill="none"/><path d="M78.86 133.922l9.898 3.555" stroke-width="1.2" stroke="#000" stroke-miterlimit="10" fill="none"/><path d="M65.965 124.863h7v11h-7zm0 0" fill="#fff"/><use xlink:href="#b" x="65.965" y="133.526" fill="#00f"/><path d="M50.438 140.31l-7.594-7.275" stroke-width="1.2" stroke="#00f" stroke-miterlimit="10" fill="none"/><path d="M42.844 133.035l-7.594-7.273" stroke-width="1.2" stroke="#000" stroke-miterlimit="10" fill="none"/><path d="M52.34 135.28l-6.074-5.815" stroke-width="1.2" stroke="#00f" stroke-miterlimit="10" fill="none"/><path d="M46.266 129.465l-6.075-5.82" stroke-width="1.2" stroke="#000" stroke-miterlimit="10" fill="none"/><path d="M47.438 134.81h7v11h-7zm0 0" fill="#fff"/><use xlink:href="#b" x="47.438" y="143.472" fill="#00f"/><path d="M35.25 125.762l4.57-9.47" stroke-width="1.2" stroke="#000" stroke-miterlimit="10" fill="none"/><path d="M39.82 116.293l4.575-9.47" stroke-width="1.2" stroke="#00f" stroke-miterlimit="10" fill="none"/><path d="M41.395 101.324h7v11h-7zm0 0" fill="#fff"/><use xlink:href="#b" x="41.395" y="109.987" fill="#00f"/><path d="M117.598 167.824l-10.418-1.422" stroke-width="1.2" stroke="#000" stroke-miterlimit="10" fill="none"/><path d="M107.18 166.402l-10.418-1.422" stroke-width="1.2" stroke="#00f" stroke-miterlimit="10" fill="none"/><path d="M114.848 172.44l-8.336-1.135" stroke-width="1.2" stroke="#000" stroke-miterlimit="10" fill="none"/><path d="M106.512 171.305l-8.336-1.137" stroke-width="1.2" stroke="#00f" stroke-miterlimit="10" fill="none"/><path d="M125.555 187.293l-7.957-19.47" stroke-width="1.2" stroke="#000" stroke-miterlimit="10" fill="none"/><path d="M96.762 164.98l-6.442 8.313" stroke-width="1.2" stroke="#00f" stroke-miterlimit="10" fill="none"/><path d="M90.32 173.293l-6.44 8.312" stroke-width="1.2" stroke="#000" stroke-miterlimit="10" fill="none"/><path d="M93.762 159.48h7v11h-7zm0 0" fill="#fff"/><use xlink:href="#b" x="93.762" y="168.144" fill="#00f"/><path d="M83.88 181.605l7.956 19.465M89.258 181.68l6.363 15.574M83.88 181.605l-20.837-2.843M91.836 201.07l20.84 2.844M112.676 203.914l12.88-16.62M110.05 199.223l10.305-13.3M219.19 114.426l20.193-5.875M239.383 108.55L254.57 123.1M237.48 113.578l12.15 11.637" stroke-width="1.2" stroke="#000" stroke-miterlimit="10" fill="none"/></g></svg>
